**kern	**dynam	**kern	**dynam	**kern	**dynam	**kern	**dynam	**mxhm
*part4	*part4	*part3	*part3	*part2	*part2	*part1	*part1	*part1
*staff4	*	*staff3	*	*staff2	*	*staff1	*	*
*I"Cello	*	*I"Viola	*	*I"2nd Violin	*	*I"1st Violin	*	*
*clefF4	*	*clefC3	*	*clefG2	*	*clefG2	*	*
*k[b-]	*	*k[b-]	*	*k[b-]	*	*k[b-]	*	*
*d:	*	*d:	*	*d:	*	*d:	*	*
*M3/4	*	*M3/4	*	*M3/4	*	*M3/4	*	*
=1	=1	=1	=1	=1	=1	=1	=1	=1
!	!	!	!	!	!LO:DY:a	!LO:TX:a:B:t=Allegro assai vivace ma serioso	!	!
8G#L	f	8dL	f	8fL	f f	8bL	.	#viio7/V
16r	.	16r	.	16r	.	16r	.	.
16G#Jk	.	16dJk	.	16fJk	.	16bJk	.	.
(4A	.	4d	.	4f	.	(4a	.	i64
8B)	.	8d	.	8f	.	8g#)	.	#viio65/V
8r	.	8r	.	8r	.	8r	.	.
=2	=2	=2	=2	=2	=2	=2	=2	=2
2.r	.	2.r	.	2.r	.	2.r	.	.
=3	=3	=3	=3	=3	=3	=3	=3	=3
8BL	.	8dL	.	8bL	.	8ddL	.	.
16r	.	16r	.	16r	.	16r	.	.
16BJk	.	16dJk	.	16bJk	.	16ddJk	.	.
(4c	.	(4e	.	(4a	.	(4cc	.	v6
8d)	.	8f)	.	8g#)	.	8b)	.	#viio43/V
8r	.	8r	.	8r	.	8r	.	.
=4	=4	=4	=4	=4	=4	=4	=4	=4
2.r	.	2.r	.	2.r	.	2.r	.	.
=5	=5	=5	=5	=5	=5	=5	=5	=5
4r	.	4r	.	4r	.	8ffL	p	.
.	.	.	.	.	.	16r	.	.
.	.	.	.	.	.	16ffJk	.	.
4.GG#	p	4.E 4.B	p	4.e 4.b	p	4.ee	.	v.V65
8r	.	8r	.	8r	.	8dd'	.	.
=6	=6	=6	=6	=6	=6	=6	=6	=6
4r	.	4r	.	4r	.	8ccL	.	i
.	.	.	.	.	.	16r	.	.
.	.	.	.	.	.	16ccJk	.	.
4.AAA 4.AA	.	4.E	.	4.c	.	4.b	.	i(9)
8r	.	8r	.	8r	.	8a'	.	i
=7	=7	=7	=7	=7	=7	=7	=7	=7
!LO:TX:b:i:t=cresc.	!	!LO:TX:b:i:t=cresc.	!	!LO:TX:b:i:t=cresc.	!	!LO:TX:a:i:t=cresc.	!	!
4DD	.	8r	.	8r	.	8gL	.	iv(4)
.	.	8A	.	8d	.	16r	.	.
.	.	.	.	.	.	16fJk	.	iv
4.DD	.	8r	.	8r	.	8eL	.	iv(9)
.	.	8F	.	8A	.	16r	.	.
.	.	.	.	.	.	16dJk	.	iv
.	.	8r	.	8r	.	8cL	.	V(6)
8EE	.	8E	.	8G#	.	16r	.	V
.	.	.	.	.	.	16BJk	.	.
=8	=8	=8	=8	=8	=8	=8	=8	=8
8GGL	.	4AA	.	4A	.	4A	.	i2
16r	.	.	.	.	.	.	.	.
16FFJk	.	.	.	.	.	.	.	.
8EEL	.	4r	.	4r	.	4r	.	.
16r	.	.	.	.	.	.	.	.
16DDJk	.	.	.	.	.	.	.	.
8CCL	.	4r	.	4r	.	4r	.	.
16r	.	.	.	.	.	.	.	.
16BBBJk	.	.	.	.	.	.	.	.
=9	=9	=9	=9	=9	=9	=9	=9	=9
!	!LO:DY:a	!	!	!	!	!	!	!
8AAAL	f f	8AAL	.	2.r	.	2.r	.	iio6
16r	.	16r	.	.	.	.	.	.
16EJk	.	16GJk	.	.	.	.	.	.
(4F	.	(4A	.	.	.	.	.	.
8G)	.	8B-)	.	.	.	.	.	.
8r	.	8r	.	.	.	.	.	.
=10	=10	=10	=10	=10	=10	=10	=10	=10
!	!	!	!LO:DY:a	!	!LO:DY:a	!	!	!
2.r	.	2.r	f	8gL	f	8eeL	.	.
.	.	.	.	16r	.	16r	.	.
.	.	.	.	16gJk	.	16eeJk	.	.
.	.	.	.	(4f	.	(4dd	.	i6
.	.	.	.	8e)	.	8cc#)	.	V64
.	.	.	.	8r	.	8r	.	.
=11	=11	=11	=11	=11	=11	=11	=11	=11
8c#L	.	8eL	.	2.r	.	2.r	.	iio
16r	.	16r	.	.	.	.	.	.
16c#Jk	.	16eJk	.	.	.	.	.	.
(4d	.	(4f	.	.	.	.	.	.
4e)	.	8g)	.	.	.	.	.	.
.	.	8r	.	.	.	.	.	.
=12	=12	=12	=12	=12	=12	=12	=12	=12
2.r	.	2.r	.	8ggL	.	8bb-L	.	.
.	.	.	.	16r	.	16r	.	.
.	.	.	.	16ggJk	.	16bb-Jk	.	.
.	.	.	.	(4ff	.	(4aa	.	i6
.	.	.	.	8ee)	.	8gg)	.	iio
.	.	.	.	8r	.	8r	.	.
=13	=13	=13	=13	=13	=13	=13	=13	=13
4r	.	8b-L	p	4r	.	4r	.	.
.	.	16r	.	.	.	.	.	.
.	.	16b-Jk	.	.	.	.	.	.
4.C#	p	4.a	.	4.E 4.e	p	4.ee	p	V6
8r	.	8g'	.	8r	.	8r	.	V65
=14	=14	=14	=14	=14	=14	=14	=14	=14
4r	.	8fL	.	4r	.	4r	.	i6
.	.	16r	.	.	.	.	.	.
.	.	16fJk	.	.	.	.	.	.
4.D	.	4.e	.	4.F	.	4.a	.	i(9)
8r	.	8d'	.	8r	.	8r	.	i
=15	=15	=15	=15	=15	=15	=15	=15	=15
!LO:TX:a:i:t=cresc.	!	!LO:TX:b:i:t=cresc.	!	!LO:TX:a:i:t=cresc.	!	!LO:TX:a:i:t=cresc.	!	!
4GG	.	8cL	.	8r	.	8r	.	iv(4)
.	.	16r	.	8d	.	8b-	.	iv
.	.	16B-Jk	.	.	.	.	.	.
4.GG	.	8AL	.	8r	.	8r	.	iv(9)
.	.	16r	.	8d	.	8b-	.	iv
.	.	16GJk	.	.	.	.	.	.
.	.	8FL	.	8r	.	8r	.	V(6)
8AA	.	16r	.	8c#	.	8a	.	V
.	.	16EJk	.	.	.	.	.	.
=16	=16	=16	=16	=16	=16	=16	=16	=16
8CL	.	4D	.	8dL	.	8dL	.	VI(2)
16r	.	.	.	16r	.	16r	.	.
16BB-Jk	.	.	.	16fJk	.	16ddJk	.	VI
8AAL	.	8r	.	8fL	.	8ddL	.	i64
16r	.	16r	.	16r	.	16r	.	.
16GGJk	.	16AA	.	16cc#Jk	.	16eeJk	.	V2
8FFL	.	8AAL	.	8ddL	.	8ffL	.	i6
16r	.	16r	.	16r	.	16r	.	.
16EEJk	.	16AAJk	.	16eeJk	.	16ggJk	.	V43
=17	=17	=17	=17	=17	=17	=17	=17	=17
!	!LO:DY:a	!	!LO:DY:a	!	!	!	!	!
4DD	f f	4AA	f	8ffL	.	8aaL	f	i[i64
.	.	.	.	16r	.	16r	.	.
.	.	.	.	16ffJk	.	16aaJk	.	.
!	!LO:DY:a	!	!	!	!	!	!	!
[2DD [2AA	sf sf	2AA	.	(4.ee	sf	(4.gg	sf	V7
.	.	.	.	8dd)	.	8ff)	.	i64
=18	=18	=18	=18	=18	=18	=18	=18	=18
4DD] 4AA]	.	(4BB	.	8aL	.	8ffL	.	#vi%2
.	.	.	.	16r	.	16r	.	.
.	.	.	.	16aJk	.	16ffJk	.	.
!	!LO:DY:a	!	!	!	!	!	!	!
2DD 2AA	sf sf	4C#	.	(4.g	sf	(4.ee	sf	i64]
.	.	4D)	.	.	.	.	.	.
.	.	.	.	8f)	.	8dd)	.	.
=19	=19	=19	=19	=19	=19	=19	=19	=19
8GL	.	8B-XL	.	8e'L	.	8cc#'L	.	#viio43
16r	.	16r	.	16r	.	16r	.	.
16GJk	.	16B-Jk	.	16cc#'Jk	.	16ee'Jk	.	.
(4.F	.	(4.A	.	8cc#'L	.	8ee'L	.	i6(9#7)
.	.	.	.	16r	.	16r	.	.
.	.	.	.	16dd'Jk	.	16ff'Jk	.	i6
.	.	.	.	8dd'L	.	8ff'L	.	.
8E)	.	8G)	.	16r	.	16r	.	iio
.	.	.	.	16ee'Jk	.	16gg'Jk	.	.
=20	=20	=20	=20	=20	=20	=20	=20	=20
8EL	.	8GL	.	8eeL	.	8ggL	.	.
16r	.	16r	.	16r	.	16r	.	.
16EJk	.	16GJk	.	16eJk	.	16gJk	.	.
(4.D	.	(4.F	.	8eL	.	8gL	.	i(94)
.	.	.	.	16r	.	16r	.	.
.	.	.	.	16fJk	.	16aJk	.	i
.	.	.	.	8fL	.	8aL	.	.
8C#)	.	8E)	.	16r	.	16r	.	#viio7
.	.	.	.	16gJk	.	16b-Jk	.	.
=21	=21	=21	=21	=21	=21	=21	=21	=21
8C#L	.	8EL	.	8ggL	.	8bb-L	.	.
16r	.	16r	.	16r	.	16r	.	.
16c#Jk	.	16eJk	.	16ggJk	.	16bb-Jk	.	.
8c#L	.	8eL	.	(4.ff	.	(4.aa	.	i
16r	.	16r	.	.	.	.	.	.
16dJk	.	16fJk	.	.	.	.	.	.
8dL	.	8fL	.	.	.	.	.	.
16r	.	16r	.	8ee)	.	8gg)	.	iio
16eJk	.	16gJk	.	.	.	.	.	.
=22	=22	=22	=22	=22	=22	=22	=22	=22
8EL	.	8gL	.	8eeL	.	8ggL	.	.
16r	.	16r	.	16r	.	16r	.	.
16EEJk	.	16GJk	.	16eeJk	.	16ggJk	.	.
8EEL	.	8GL	.	(4.dd	.	(4.ff	.	i6
16r	.	16r	.	.	.	.	.	.
16FFJk	.	16AJk	.	.	.	.	.	.
8FFL	.	8AL	.	.	.	.	.	.
16r	.	16r	.	8cc#)	.	8ee)	.	#viio43
16GGJk	.	16B-Jk	.	.	.	.	.	.
=23	=23	=23	=23	=23	=23	=23	=23	=23
8FFL	.	8AL	.	8ddL	.	8ddL	.	i6
16r	.	16r	.	16r	.	16r	.	.
16FJk	.	16AJk	.	16ddJk	.	16ffJk	.	.
(4.E	.	(4.G	.	8ddL	.	8ffL	.	iio(72)
.	.	.	.	16r	.	16r	.	.
.	.	.	.	16eeJk	.	16ggJk	.	iio
.	.	.	.	8eeL	.	8ggL	.	.
8D)	.	8F)	.	16r	.	16r	.	i
.	.	.	.	16ffJk	.	16aaJk	.	.
=24	=24	=24	=24	=24	=24	=24	=24	=24
8FFL	.	8AAL 8A	.	8aL	.	8aaL	.	i6
16r	.	16r	.	16r	.	16r	.	.
16FFJk	.	16AAJk 16A	.	16bJk	.	16bbJk	.	#vi%43
(4.EE	.	(4.AA 4.G	.	8bL	.	8bbL	.	V43(9)
.	.	.	.	16r	.	16r	.	.
.	.	.	.	16cc#Jk	.	16ccc#Jk	.	V43
.	.	.	.	8cc#L	.	8ccc#L	.	.
8DD)	.	8AA) 8F	.	16r	.	16r	.	i
.	.	.	.	16ddJk	.	16dddJk	.	.
=25	=25	=25	=25	=25	=25	=25	=25	=25
!	!LO:DY:a	!	!LO:DY:a	!	!	!	!	!
4BBB-	ff ff	4BB- 4F	ff	8ddL	.	8dddL	ff	VI
.	.	.	.	16r	.	16r	.	.
.	.	.	.	16ffJk	.	16dddJk	.	.
2BBB-	.	2BB- 2B-	.	(4.ee-X	.	(4.cccX	.	.
.	.	.	.	8dd)	.	8bb-X)	.	.
=26	=26	=26	=26	=26	=26	=26	=26	=26
4EE-X	.	8B-L	.	8ggL	.	8bb-L	.	.bII
.	.	16r	.	16r	.	16r	.	.
.	.	16B-Jk	.	16gJk	.	16bb-Jk	.	.
2EE-	.	(4.d	.	(4.f	.	(4.gg#	.	.
.	.	8e-X)	.	8e-X)	.	8ggX)	.	.
=27	=27	=27	=27	=27	=27	=27	=27	=27
8CC#L	.	8EL 8e	.	8eL	.	8ggL	.	#viio
16r	.	16r	.	16r	.	16r	.	.
16AAAJk	.	16AJk	.	16cc#Jk	.	16ggJk	.	V7
8DDL	.	8AL	.	8ddL	.	8ffL	.	i
16r	.	16r	.	16r	.	16r	.	.
16DJk	.	16dJk	.	16ddJk	.	16ddJk	.	.
8BB-L	.	8B-L	.	8b-L	.	8b-L	.	VI
16r	.	16r	.	16r	.	16r	.	.
16AAJk	.	16AJk	.	16aJk	.	16aJk	.	V
=28	=28	=28	=28	=28	=28	=28	=28	=28
8GG#L	.	8G#L	.	8g#L	.	8g#L	.	viio/V
16r	.	16r	.	16r	.	16r	.	.
16AAJk	.	16AJk	.	16aJk	.	16aJk	.	V
8BBB-L	.	8BB-L	.	8B-L	.	8B-L	.	.
16r	.	16r	.	16r	.	16r	.	.
16AAAJk	.	16AAJk	.	16AJk	.	16AJk	.	.
8AAAL	.	8AAL	.	8AL	.	8AL	.	.
16r	.	16r	.	16r	.	16r	.	.
16AAAJk	.	16AAJk	.	16AJk	.	16AJk	.	.
=29	=29	=29	=29	=29	=29	=29	=29	=29
4r	.	4r	.	4r	.	8AL	.	.
.	.	.	.	.	.	16r	.	.
.	.	.	.	.	.	16AJk	.	.
!	!	!	!LO:DY:a	!	!LO:DY:a	!	!	!
2AAA	sf	(4.E	sf sf	(4.GX	sf	(4.c#	.	V[#viio6
.	.	8D)	.	8F)	.	8d)	.	i
=30	=30	=30	=30	=30	=30	=30	=30	=30
4r	.	4r	.	4r	.	8.AL	.	.
.	.	.	.	.	.	16AJk	.	.
!	!	!	!LO:DY:a	!	!LO:DY:a	!	!	!
2AAA	sf	(4.GX	sf sf	(4.c#	sf	(4.e	.	#viio64
.	.	8F)	.	8d)	.	8f)	.	i6]
=31	=31	=31	=31	=31	=31	=31	=31	=31
!	!LO:DY:a	!	!LO:DY:a	!	!LO:DY:a	!	!	!
8GGL	ff ff	8DL	ff	8B-L	ff	8gL	.	iv
16r	.	16r	.	16r	.	16r	.	.
16GGJk	.	16GJk	.	16B-Jk	.	16aJk	.	.
4GG'	.	4G'	.	4B-'	.	4b-'	.	.
4r	.	4r	.	4r	.	4r	.	.
=32	=32	=32	=32	=32	=32	=32	=32	=32
8EEL	.	8c#L	.	8gL	.	8b-L	.	#viio65
16r	.	16r	.	16r	.	16r	.	.
16EEJk	.	16c#Jk	.	16gJk	.	16cc#Jk	.	.
4DD'	.	4f'	.	4a'	.	4dd'	.	i
4r	.	4r	.	4r	.	4r	.	.
=33	=33	=33	=33	=33	=33	=33	=33	=33
8DDL	.	4D	.	4F	.	8ddL	.	i
16r	.	.	.	.	.	16r	.	.
16CCJk	.	.	.	.	.	16eeJk	.	.
!	!LO:DY:a	!	!LO:DY:a	!	!	!	!	!
8BBB-L	sf	[2D	sf	[2F	.	8ffL	.	VI
16r	.	.	.	.	.	16r	.	.
16BBB-Jk	.	.	.	.	.	16ggJk	.	.
8BBB-L	sf	.	.	.	.	[4aa	sf	VI7
16r	.	.	.	.	.	.	.	.
16AAAJk	.	.	.	.	.	.	.	.
=34	=34	=34	=34	=34	=34	=34	=34	=34
8AAAL	.	8DL]	.	8FL]	.	8aaL]	.	V(64)
16r	.	16r	.	16r	.	16r	.	.
16AAJk	.	16DJk	.	16fJk	.	16ffJk	.	.
8AAL	.	8DL	.	8fL	.	8ddL	.	.
16r	.	16r	.	16r	.	16r	.	.
16AAJk	.	16DJk	.	16fJk	.	16b-Jk	.	.
8AAL	.	8EL	.	8gL	.	8aL	.	V7
16r	.	16r	.	16r	.	16r	.	.
16AAJk	.	16EJk	.	16aJk	.	16cc#Jk	.	.
=35	=35	=35	=35	=35	=35	=35	=35	=35
8DDL	.	4D 4F	.	8ddL	.	8ddL	.	i
16r	.	.	.	16r	.	16r	.	.
16CCJk	.	.	.	16eeJk	.	16dJk	.	.
!	!LO:DY:a	!	!	!	!	!	!	!
8CCL	sf	[2D [2F	.	8ffL	.	8dL	.	i2
16r	.	.	.	16r	.	16r	.	.
16BBB-Jk	.	.	.	16ggJk	.	16eJk	.	ii64
8BBB-L	sf	.	.	[4aa	sf	8fL	.	VI7
16r	.	.	.	.	.	16r	.	.
16AAAJk	.	.	.	.	.	16gJk	.	V[V7
=36	=36	=36	=36	=36	=36	=36	=36	=36
8AAAL	.	8DL] 8F]	.	8aaL]	.	8aL	.	i
16r	.	16r	.	16r	.	16r	.	.
16AAJk	.	16DJk 16F	.	16ffJk	.	16fJk	.	.
8AAL	.	8DL 8F	.	8ddL	.	8dL	.	.
16r	.	16r	.	16r	.	16r	.	.
16AAAJk	.	16DJk 16F	.	16b-Jk	.	16B-Jk	.	.
8AAAL	.	8EL 8G	.	8aL	.	8AL	.	V43]
16r	.	16r	.	16r	.	16r	.	.
16AAAJk	.	16AAJk	.	16cc#Jk	.	16c#Jk	.	V
=37	=37	=37	=37	=37	=37	=37	=37	=37
8.DDL	.	8DL	.	8ddL	.	8dL	.	i
.	.	16r	.	16r	.	16r	.	.
16AAAJk	.	16AAJk	.	16aJk	.	16AJk	.	i64
4AAA	.	4AA	.	4a	.	4A	.	.
4r	.	4r	.	4r	.	4r	.	.
=38	=38	=38	=38	=38	=38	=38	=38	=38
8FFL	.	8FL	.	8ffL	.	8fL	.	i6
16r	.	16r	.	16r	.	16r	.	.
16DDJk	.	16DJk	.	16ddJk	.	16dJk	.	i
4DD	.	4D	.	4dd	.	4d	.	.
4r	.	4r	.	4r	.	4r	.	.
=39	=39	=39	=39	=39	=39	=39	=39	=39
8DL	.	8dL	.	8ddL	.	8ddL	.	.
16r	.	16r	.	16r	.	16r	.	.
16AAJk	.	16AJk	.	16aJk	.	16aJk	.	.
4FF'	.	4F'	.	4f'	.	4f'	.	.
4AA'	.	4A'	.	4a'	.	4a'	.	V
=40	=40	=40	=40	=40	=40	=40	=40	=40
4DD'	.	4D'	.	4d'	.	4d'	.	i\\
2G#	sf	2f	sf	2d	sf	2b	sf	#viio7/V
=41:|!	=41:|!	=41:|!	=41:|!	=41:|!	=41:|!	=41:|!	=41:|!	=41:|!
4DD'	.	4D'	.	4d'	.	4d'	.	i\\
[2EE-X	sf >	[2E-X	sf >	[2e-X	sf >	[2e-X	sf >	.bII.I
=42	=42	=42	=42	=42	=42	=42	=42	=42
2.EE-]	p ]]	2.E-]	p ]]	2.e-]	p ]]	8e-L]	p	.
.	.	.	.	.	.	8e-X'J	]	.
.	.	.	.	.	.	(8e-L	.	.
.	.	.	.	.	.	8B-XJ	.	.
.	.	.	.	.	.	8GL	.	.
.	.	.	.	.	.	8e-J)	.	.
=43	=43	=43	=43	=43	=43	=43	=43	=43
!	!	!	!	!LO:TX:a:i:t=espress.	!	!	!	!
2.E-X	.	2.G	.	2.b-	.	8r	.	.
.	.	.	.	.	.	8e-X'	.	.
.	.	.	.	.	.	(8e-L	.	.
.	.	.	.	.	.	8B-J	.	.
.	.	.	.	.	.	8GL	.	.
.	.	.	.	.	.	8e-J)	.	.
=44	=44	=44	=44	=44	=44	=44	=44	=44
(2.E-X	.	(2.G	.	(2.b-	.	8r	.	.
.	.	.	.	.	.	8e-X'	.	.
.	.	.	.	.	.	(8e-L	.	.
.	.	.	.	.	.	8B-J	.	.
.	.	.	.	.	.	8GL	.	.
.	.	.	.	.	.	8e-J)	.	.
=45	=45	=45	=45	=45	=45	=45	=45	=45
2.AA-X)	.	2.A-X)	.	2.cc)	.	8r	.	IV
.	.	.	.	.	.	8e-X'	.	.
.	.	.	.	.	.	(8e-L	.	.
.	.	.	.	.	.	8cJ	.	.
.	.	.	.	.	.	8G#L	.	.
.	.	.	.	.	.	8e-J)	.	.
=46	=46	=46	=46	=46	=46	=46	=46	=46
(2.GGX	<	(2.E 2.e	<	(2.cc#	<	8r	<	viio/ii
.	.	.	.	.	.	8e'	.	.
.	.	.	.	.	.	(8eL	.	.
.	.	.	.	.	.	8c#J	.	.
.	.	.	.	.	.	8B-L	.	.
.	.	.	.	.	.	8eJ)	.	.
=47	=47	=47	=47	=47	=47	=47	=47	=47
2.AA-X	.	2.F	.	2.ccX	.	8r	.	ii6
.	.	.	.	.	.	8f'	.	.
.	.	.	.	.	.	(8fL	.	.
.	.	.	.	.	.	8cXJ	.	.
.	.	.	.	.	.	8G#L	.	.
.	.	.	.	.	.	8fJ)	.	.
=48	=48	=48	=48	=48	=48	=48	=48	=48
2.BB-)	.	2.G	.	2b-	.	8r	.	V(64)
.	.	.	.	.	.	8gX'	.	.
.	.	.	.	.	.	(8gL	.	.
.	.	.	.	.	.	8e-XJ	.	.
.	.	.	.	4ee-X	.	8B-L	.	.
.	.	.	.	.	.	8gJ)	.	.
=49	=49	=49	=49	=49	=49	=49	=49	=49
2.BB-	>]	2G#	.	4dd	.	8r	.	V7
.	.	.	.	.	.	8f'	.	.
.	.	.	.	4ff)	[	8fL	.	.
.	.	.	.	.	.	8dJ	[ >	.
.	.	4F)	[ > ]]	4g#'	>]	8B-L	.	.
.	.	.	.	.	.	8dJ	]]	.
=50	=50	=50	=50	=50	=50	=50	=50	=50
!	!	!	!	!	!	!LO:TX:b:i:t=dol.	!	!
4EE-X	]	4E-X	.	4gX	.	8e-X'L	.	I\\
.	.	.	.	.	.	8b-'J	.	.
4r	.	4r	.	4r	.	(8b-L	.	.
.	.	.	.	.	.	8gJ	.	.
4r	.	4r	.	4r	.	8ccL	.	IV6
.	.	.	.	.	.	8a-XJ)	.	.
=51	=51	=51	=51	=51	=51	=51	=51	=51
2.r	.	2.r	.	2.r	.	(8b-L	.	I6
.	.	.	.	.	.	8gXJ	.	.
.	.	.	.	.	.	8ccL	.	ii
.	.	.	.	.	.	8a-XJ	.	.
.	.	.	.	.	.	8a-L	.	.
.	.	.	.	.	.	8fJ)	.	.
=52	=52	=52	=52	=52	=52	=52	=52	=52
2.r	.	2.r	.	2.r	.	(8b-L	.	I
.	.	.	.	.	.	8gXJ	.	.
.	.	.	.	.	.	8gL	.	.
.	.	.	.	.	.	8e-XJ	.	.
.	.	.	.	.	.	8a-XL	.	ii
.	.	.	.	.	.	8fJ)	.	.
=53	=53	=53	=53	=53	=53	=53	=53	=53
2.r	.	2.r	.	2.r	.	(8fL	.	IV6
.	.	.	.	.	.	8dJ	.	.
.	.	.	.	.	.	8gXL	.	I
.	.	.	.	.	.	8e-XJ	.	.
.	.	.	.	.	.	8gL	.	.
.	.	.	.	.	.	8e-J)	.	.
*clefC4	*	*	*	*	*	*	*	*
=54	=54	=54	=54	=54	=54	=54	=54	=54
2.E-X	p	2.E-X	p	2.g	p	8g'L	p	.
.	.	.	.	.	.	8b-'J	.	.
.	.	.	.	.	.	(8b-L	.	.
.	.	.	.	.	.	8gJ	.	.
.	.	.	.	.	.	8e-XL	.	.
.	.	.	.	.	.	8b-J)	.	.
=55	=55	=55	=55	=55	=55	=55	=55	=55
2.B-	.	2.E-X	.	2.gg	.	8r	.	I64
.	.	.	.	.	.	8b-'	.	.
.	.	.	.	.	.	(8b-L	.	.
.	.	.	.	.	.	8gJ	.	.
.	.	.	.	.	.	8e-XL	.	.
.	.	.	.	.	.	8b-J)	.	.
=56	=56	=56	=56	=56	=56	=56	=56	=56
(2.B-	.	(2.E-X	.	(2.gg	.	8r	.	.
.	.	.	.	.	.	8b-'	.	.
.	.	.	.	.	.	(8b-L	.	.
.	.	.	.	.	.	8gJ	.	.
.	.	.	.	.	.	8e-XL	.	.
.	.	.	.	.	.	8b-J)	.	.
=57	=57	=57	=57	=57	=57	=57	=57	=57
2.c)	.	2.A-X)	.	2.aa-X)	.	8r	.	IV6
.	.	.	.	.	.	8cc'	.	.
.	.	.	.	.	.	(8ccL	.	.
.	.	.	.	.	.	8a-XJ	.	.
.	.	.	.	.	.	8e-XL	.	.
.	.	.	.	.	.	8ccJ)	.	.
=58	=58	=58	=58	=58	=58	=58	=58	=58
(2.c#	<	(2.GX	<	(2.bb-	<	8r	<	#viio65/ii
.	.	.	.	.	.	8cc#'	.	.
.	.	.	.	.	.	(8cc#L	.	.
.	.	.	.	.	.	8eJ	.	.
.	.	.	.	.	.	8EL	.	.
.	.	.	.	.	.	8cc#J)	.	.
=59	=59	=59	=59	=59	=59	=59	=59	=59
2.cX	.	2.A-X	.	2.aa-X	.	8r	.	ii6
.	.	.	.	.	.	8ccX'	.	.
.	.	.	.	.	.	8ccL	.	.
.	.	.	.	.	.	8a-XJ	.	.
.	.	.	.	.	.	8fL	.	.
.	.	.	.	.	.	8ccJ	.	.
=60	=60	=60	=60	=60	=60	=60	=60	=60
2B-	.	2.B-	.	2.ggX	.	8r	.	V(64)
.	.	.	.	.	.	8b-'	.	.
.	.	.	.	.	.	(8b-L	.	.
.	.	.	.	.	.	8gXJ	.	.
4e-X	.	.	.	.	.	8e-XL	.	.
.	.	.	.	.	.	8b-J)	.	.
=61	=61	=61	=61	=61	=61	=61	=61	=61
4d	.	2.BB-)	>]	4ff	.	8r	.	V7
.	.	.	.	.	.	8b-'	.	.
4f)	[	.	.	4aa-X)	[	8b-L	.	.
.	.	.	.	.	.	8g#J	[ >	.
4G#'	>]	.	.	4dd'	>]	8fL	.	.
.	.	.	.	.	.	8b-J	]]	.
=62	=62	=62	=62	=62	=62	=62	=62	=62
4GX	.	4E-X	]	4ee-X	.	4b-	.	I\\
4r	.	4r	.	4r	.	(8b-L	.	.
.	.	.	.	.	.	8gXJ	.	.
4r	.	4r	.	4r	.	8ccL	.	IV
.	.	.	.	.	.	8a-XJ)	.	.
=63	=63	=63	=63	=63	=63	=63	=63	=63
2.r	.	2.r	.	2.r	.	(8b-L	.	I
.	.	.	.	.	.	8gXJ	.	.
.	.	.	.	.	.	8ccL	.	ii
.	.	.	.	.	.	8a-XJ	.	.
.	.	.	.	.	.	8a-L	.	.
.	.	.	.	.	.	8fJ)	.	.
=64	=64	=64	=64	=64	=64	=64	=64	=64
2.r	.	2.r	.	2.r	.	(8b-L	.	I
.	.	.	.	.	.	8gXJ	.	.
.	.	.	.	.	.	8gL	.	.
.	.	.	.	.	.	8e-XJ	.	.
.	.	.	.	.	.	8a-XL	.	V43
.	.	.	.	.	.	8fJ)	.	.
=65	=65	=65	=65	=65	=65	=65	=65	=65
2.r	.	2.r	.	2.r	.	(8fL	.	.
.	.	.	.	.	.	8dJ	.	.
.	.	.	.	.	.	8f#L	.	#i
.	.	.	.	.	.	8d#XJ	.	.
.	.	.	.	.	.	8f#L	.	.
.	.	.	.	.	.	8d#J)	.	.
*clefF4	*	*	*	*	*	*	*	*
=66||	=66||	=66||	=66||	=66||	=66||	=66||	=66||	=66||
*k[f#c#g#d#a#]	*	*k[f#c#g#d#a#]	*	*k[f#c#g#d#a#]	*	*k[f#c#g#d#a#]	*	*
*B:	*	*B:	*	*B:	*	*B:	*	*
!	!LO:DY:a	!	!	!	!	!	!	!
2.BBB	p p	2.BB	.	2.B	p	8f#'L	.	I
.	.	.	.	.	.	8f#'J	.	.
.	.	.	.	.	.	(8f#L	.	.
.	.	.	.	.	.	8d#J	.	.
.	.	.	.	.	.	8BL	.	.
.	.	.	.	.	.	8f#J)	.	.
=67	=67	=67	=67	=67	=67	=67	=67	=67
(2.BB	.	2.D# 2.B	.	2.ff#	.	8r	.	.
.	.	.	.	.	.	8f#'	.	.
.	.	.	.	.	.	(8f#L	.	.
.	.	.	.	.	.	8d#J	.	.
.	.	.	.	.	.	8BL	.	.
.	.	.	.	.	.	8f#J)	.	.
=68	=68	=68	=68	=68	=68	=68	=68	=68
2.AA	.	2.D# 2.B	.	(2.ff#	.	8r	.	V2/IV
.	.	.	.	.	.	8f#'	.	.
.	.	.	.	.	.	(8f#L	.	.
.	.	.	.	.	.	8d#J	.	.
.	.	.	.	.	.	8BL	.	.
.	.	.	.	.	.	8f#J)	.	.
=69	=69	=69	=69	=69	=69	=69	=69	=69
2.GG#)	.	2.E 2.B	.	2.gg#)	.	8r	.	IV6
.	.	.	.	.	.	8g#'	.	.
.	.	.	.	.	.	(8g#L	.	.
.	.	.	.	.	.	8eJ	.	.
.	.	.	.	.	.	8BL	.	.
.	.	.	.	.	.	8g#J)	.	.
=70	=70	=70	=70	=70	=70	=70	=70	=70
(2.DD#	<	((2.BB#X	<	((2.f# 2.aa	<	8r	<	#viio65/ii
.	.	.	.	.	.	8a'	.	.
.	.	.	.	.	.	(8aL	.	.
.	.	.	.	.	.	8f#J	.	.
.	.	.	.	.	.	8B#XL	.	.
.	.	.	.	.	.	8aJ)	.	.
=71	=71	=71	=71	=71	=71	=71	=71	=71
2.EE	.	2.C# 2.E	.	2.gg#	.	8r	.	ii6
.	.	.	.	.	.	8g#'	.	.
.	.	.	.	.	.	8g#L	.	.
.	.	.	.	.	.	8c#J	.	.
.	.	.	.	.	.	8EL	.	.
.	.	.	.	.	.	8g#J	.	.
=72	=72	=72	=72	=72	=72	=72	=72	=72
2.FF#)	.	2.D#	.	2ff#	.	8r	.	V(64)
.	.	.	.	.	.	8f#'	.	.
.	.	.	.	.	.	(8f#L	.	.
.	.	.	.	.	.	8d#J	.	.
.	.	.	.	4bb	.	8BL	.	.
.	.	.	.	.	.	8f#J)	.	.
=73	=73	=73	=73	=73	=73	=73	=73	=73
2.FF#	>]	4C#	.	4aa#	.	8r	.	V7
.	.	.	.	.	.	8f#'	.	.
.	.	4E))	[	4ccc#))	[	(8f#L	.	.
.	.	.	.	.	.	8eJ	[ >	.
.	.	4F#'	>]	4ee'	>]	8c#L	.	.
.	.	.	.	.	.	8f#J)	]]	.
=74	=74	=74	=74	=74	=74	=74	=74	=74
4BBB	]	4F#	.	4dd#	.	4f#	.	I\\
4r	.	4r	.	4r	.	(8ff#L	.	.
.	.	.	.	.	.	8dd#J	.	.
4r	.	4r	.	4r	.	8gg#L	.	IV
.	.	.	.	.	.	8eeJ)	.	.
=75	=75	=75	=75	=75	=75	=75	=75	=75
2.r	.	2.r	.	2.r	.	(8ff#L	.	I
.	.	.	.	.	.	8dd#J	.	.
.	.	.	.	.	.	8gg#L	.	ii
.	.	.	.	.	.	8eeJ	.	.
.	.	.	.	.	.	8eeL	.	.
.	.	.	.	.	.	8cc#J)	.	.
=76	=76	=76	=76	=76	=76	=76	=76	=76
2.r	.	2.r	.	2.r	.	(8ff#L	.	I
.	.	.	.	.	.	8dd#J	.	.
.	.	.	.	.	.	8dd#L	.	.
.	.	.	.	.	.	8f#J	.	.
.	.	.	.	.	.	8eeL	.	ii6
.	.	.	.	.	.	8g#J)	.	.
=77	=77	=77	=77	=77	=77	=77	=77	=77
2.r	.	2.r	.	2.r	.	(8cc#L	.	.
.	.	.	.	.	.	8eJ	.	.
.	.	.	.	.	.	8a#L	.	viio6
.	.	.	.	.	.	8c#J	.	.
.	.	.	.	.	.	8bL	.	I
.	.	.	.	.	.	8d#J)	.	.
=78	=78	=78	=78	=78	=78	=78	=78	=78
!	!LO:DY:a	!	!LO:DY:a	!	!	!	!	!
2.BBB	p p	2.BB	p	2.B	.	8B'L	.	.
.	.	.	.	.	.	8f#'J	.	.
.	.	.	.	.	.	(8f#L	.	.
.	.	.	.	.	.	8d#J	.	.
.	.	.	.	.	.	8BL	.	.
.	.	.	.	.	.	8f#J)	.	.
=79	=79	=79	=79	=79	=79	=79	=79	=79
2.BB	.	2.D#	.	2.f#	.	8r	.	.
.	.	.	.	.	.	8f#'	.	.
.	.	.	.	.	.	(8f#L	.	.
.	.	.	.	.	.	8d#J	.	.
.	.	.	.	.	.	8BL	.	.
.	.	.	.	.	.	8f#J)	.	.
=80	=80	=80	=80	=80	=80	=80	=80	=80
!LO:TX:b:i:t=cresc.	!	!LO:TX:b:i:t=cresc.	!	!LO:TX:a:i:t=cresc.	!	!LO:TX:a:i:t=cresc.	!	!
2.BB	.	2.D#	.	2.f#	.	8r	.	.
.	.	.	.	.	.	8f#'	.	.
.	.	.	.	.	.	(8f#L	.	.
.	.	.	.	.	.	8d#J	.	.
.	.	.	.	.	.	8BL	.	.
.	.	.	.	.	.	8f#J)	.	.
=81	=81	=81	=81	=81	=81	=81	=81	=81
(2.AA#	.	(2.C#	.	(2.f##X	.	8r	.	.#iv.V43
.	.	.	.	.	.	8f##X'	.	.
.	.	.	.	.	.	(8f##L	.	.
.	.	.	.	.	.	8d#J	.	.
.	.	.	.	.	.	8c#L	.	.
.	.	.	.	.	.	8f##J)	.	.
=82	=82	=82	=82	=82	=82	=82	=82	=82
2.GG#	.	2.BB	.	2.g#	.	8r	.	i
.	.	.	.	.	.	8g#'	.	.
.	.	.	.	.	.	(8g#L	.	.
.	.	.	.	.	.	8d#J	.	.
.	.	.	.	.	.	8BL	.	.
.	.	.	.	.	.	8g#J)	.	.
=83	=83	=83	=83	=83	=83	=83	=83	=83
2.FF##X)	.	2AA#	.	2.a#)	.	8r	.	V65
.	.	.	.	.	.	8a#'	.	.
.	.	.	.	.	.	(8a#L	.	.
.	.	.	.	.	.	8d#J	.	.
.	.	4D#)	.	.	.	8c#L	.	.
.	.	.	.	.	.	8a#J)	.	.
=84	=84	=84	=84	=84	=84	=84	=84	=84
(2.GG#	.	(2.D#	.	(2.b	.	8r	.	i
.	.	.	.	.	.	8b'	.	.
.	.	.	.	.	.	(8bL	.	.
.	.	.	.	.	.	8d#J	.	.
.	.	.	.	.	.	8BL	.	.
.	.	.	.	.	.	8bJ)	.	.
=85	=85	=85	=85	=85	=85	=85	=85	=85
2.EE)	p	2.G#)	p	2.cc#)	p	8r	.	iv6
.	.	.	.	.	.	8cc#'	p	.
.	.	.	.	.	.	(8cc#L	.	.
.	.	.	.	.	.	8g#J	.	.
.	.	.	.	.	.	8c#L	.	.
.	.	.	.	.	.	8cc#J)	.	.
=86	=86	=86	=86	=86	=86	=86	=86	=86
2.EE	< < [[	2.C# 2.G#	<[	2.c# 2.cc#	<[	8r	.	.
.	.	.	.	.	.	8cc#'	.	.
.	.	.	.	.	.	(8cc#L	<	.
.	.	.	.	.	.	8g#J	.	.
.	.	.	.	.	.	8c#L	.	.
.	.	.	.	.	.	8cc#J)	.	.
=87	=87	=87	=87	=87	=87	=87	=87	=87
2.GG#	[ sf > ]]	2.C# 2.E	sf > ]]	2.c# 2.a#	sf > ]]	8r	.	ii%2
.	.	.	.	.	.	8ee'	.	.
.	.	.	.	.	.	(8eeL	[ sf	.
.	.	.	.	.	.	8g#J	>	.
.	.	.	.	.	.	8c#L	.	.
.	.	.	.	.	.	8eeJ)	]]	.
=88	=88	=88	=88	=88	=88	=88	=88	=88
2.EE	<[	2.C# 2.G#	<[	2.c# 2.cc#	<[	8r	.	iv6
.	.	.	.	.	.	8cc#'	<	.
.	.	.	.	.	.	(8cc#L	.	.
.	.	.	.	.	.	8g#J	.	.
.	.	.	.	.	.	8c#L	.	.
.	.	.	.	.	.	8cc#J)	.	.
=89	=89	=89	=89	=89	=89	=89	=89	=89
!	!	!	!LO:DY:a	!	!	!	!	!
2.GG#	sf > ]]	2.C# 2.E	sf sf > ]]	2.c# 2.a#	>]	8r	.	ii%2
.	.	.	.	.	.	8ee'	.	.
.	.	.	.	.	.	(8eeL	[ sf >	.
.	.	.	.	.	.	8g#J	.	.
.	.	.	.	.	.	8c#L	.	.
.	.	.	.	.	.	8eeJ)	]]	.
=90	=90	=90	=90	=90	=90	=90	=90	=90
!LO:TX:b:i:t=dim.	!	!LO:TX:b:i:t=dim.	!	!LO:TX:a:i:t=dim.	!	!	!	!
2.DD#	.	(2.G#	.	(2.b	.	8r	.	V(64)
!	!	!	!	!	!	!LO:TX:a:i:t=dim.	!	!
.	.	.	.	.	.	8dd#'	.	.
.	.	.	.	.	.	(8dd#L	.	.
.	.	.	.	.	.	8bJ	.	.
.	.	.	.	.	.	8g#L	.	.
.	.	.	.	.	.	8dd#J)	.	.
=91	=91	=91	=91	=91	=91	=91	=91	=91
[2.DD#	.	(2.F##X)	.	2.a#	.	8r	.	V
.	.	.	.	.	.	8d#'	.	.
.	.	.	.	.	.	(8d#L	.	.
.	.	.	.	.	.	8A#J	.	.
.	.	.	.	.	.	8F##XL	.	.
.	.	.	.	.	.	8d#J)	.	.
=92	=92	=92	=92	=92	=92	=92	=92	=92
2.DD#]	p	2.F##X)	p	2.cc# 2.ee	p	8r	.	V7(+9)
.	.	.	.	.	.	8e'	p	.
.	.	.	.	.	.	(8eL	.	.
.	.	.	.	.	.	8c#J	.	.
.	.	.	.	.	.	8F##XL	.	.
.	.	.	.	.	.	8eJ)	.	.
=93	=93	=93	=93	=93	=93	=93	=93	=93
2.GG#	pp	2.G#	pp	2.b) 2.dd#	pp	8r	.	i
.	.	.	.	.	.	8d#'	pp	.
.	.	.	.	.	.	(8d#L	.	.
.	.	.	.	.	.	8BJ	.	.
.	.	.	.	.	.	8G#L	.	.
.	.	.	.	.	.	8d#J)	.	.
=94	=94	=94	=94	=94	=94	=94	=94	=94
2.GG#	.	2.D#	.	2.d#	.	8r	.	.
.	.	.	.	.	.	8d#'	.	.
.	.	.	.	.	.	(8d#L	.	.
.	.	.	.	.	.	8BJ	.	.
.	.	.	.	.	.	8G#L	.	.
.	.	.	.	.	.	8d#J)	.	.
=95	=95	=95	=95	=95	=95	=95	=95	=95
2.GG#	.	2.G#	.	2.g#	.	8r	.	.
.	.	.	.	.	.	8g#'	.	.
.	.	.	.	.	.	(8g#L	.	.
.	.	.	.	.	.	8d#J	.	.
.	.	.	.	.	.	8BL	.	.
.	.	.	.	.	.	8g#J)	.	.
=96	=96	=96	=96	=96	=96	=96	=96	=96
4GG#	.	4G#	.	4g#	.	(8g#L	.	.
.	.	.	.	.	.	8dd#J	.	.
4r	.	4r	.	4r	.	8dd#L	.	.
.	.	.	.	.	.	8bJ	.	.
4r	.	4r	.	4r	.	8bL	.	.
.	.	.	.	.	.	8g#J)	.	.
=97	=97	=97	=97	=97	=97	=97	=97	=97
2.r	.	2.r	.	2.r	.	(8bL	.	.
.	.	.	.	.	.	8g#J	.	.
.	.	.	.	.	.	8g#L	.	.
.	.	.	.	.	.	8d#J	.	.
.	.	.	.	.	.	8bL	.	.
.	.	.	.	.	.	8g#J)	.	.
=98	=98	=98	=98	=98	=98	=98	=98	=98
2.r	.	2.r	.	2.r	.	(8g#L	.	.
.	.	.	.	.	.	8d#J	.	.
.	.	.	.	.	.	8d#L	.	.
.	.	.	.	.	.	8BJ	.	.
.	.	.	.	.	.	8g#L	.	.
.	.	.	.	.	.	8d#J)	.	.
=99	=99	=99	=99	=99	=99	=99	=99	=99
2.r	.	2.r	.	2.r	.	(8d#L	.	.
.	.	.	.	.	.	8BJ	.	.
.	.	.	.	.	.	8BL	.	.
.	.	.	.	.	.	8G#J	.	.
.	.	.	.	.	.	8BL	.	.
.	.	.	.	.	.	8G#J)	.	.
=100	=100	=100	=100	=100	=100	=100	=100	=100
!	!	!	!	!	!LO:DY:a	!	!	!
2.r	.	2.r	.	2.r	pp	4G#	.	.
.	.	.	.	.	.	2G#	.	.
=101	=101	=101	=101	=101	=101	=101	=101	=101
2.r	.	2.r	.	2.r	.	4G#	.	.
.	.	.	.	.	.	2G#	.	.
=102	=102	=102	=102	=102	=102	=102	=102	=102
!	!	!	!LO:DY:a	!	!	!	!	!
2.r	.	4G#	pp pp	4B	.	2.r	.	.
.	.	2G#	.	2B	.	.	.	.
=103	=103	=103	=103	=103	=103	=103	=103	=103
!	!	!	!	!	!LO:DY:a	!	!	!
4G#	f	4d	f	4fX	f f	4B 4b	.	v.#viio7
2G#	.	2d	.	2f	.	2B 2b	.	.
=104	=104	=104	=104	=104	=104	=104	=104	=104
8G#L	f	8dL	f	8fXL	f	8bL	f	.
16r	.	16r	.	16r	.	16r	.	.
16G#Jk	.	16dJk	.	16fJk	.	16bJk	.	.
(4A	.	(4d	.	(4f	.	(4a	.	iv64
8B)	.	8d)	.	8f)	.	8g#)	.	#viio65
8r	.	8r	.	8r	.	8r	.	.
=105	=105	=105	=105	=105	=105	=105	=105	=105
2.r	.	2.r	.	2.r	.	2.r	.	.
=106	=106	=106	=106	=106	=106	=106	=106	=106
8BL	.	8dL	.	8bL	.	8ddL	.	#viio65
16r	.	16r	.	16r	.	16r	.	.
16BJk	.	16dJk	.	16bJk	.	16ddJk	.	.
(4cX	.	(4e	.	(4a	.	(4ccX	.	i6
8d)	.	8fX)	.	8g#)	.	8b)	.	#viio2
8r	.	8r	.	8r	.	8r	.	.
=107	=107	=107	=107	=107	=107	=107	=107	=107
2.r	.	2.r	.	2.r	.	2.r	.	.
=108	=108	=108	=108	=108	=108	=108	=108	=108
4r	.	4r	.	4r	.	8ffXL	p	V65(9)
.	.	.	.	.	.	16r	.	.
.	.	.	.	.	.	16ffJk	.	.
4.GG#	p	4.E 4.B	p	4.e 4.b	p	4.ee	.	V65
8r	.	8r	.	8r	.	8dd'	.	.
=109	=109	=109	=109	=109	=109	=109	=109	=109
4r	.	4r	.	4r	.	8ccXL	.	i
.	.	.	.	.	.	16r	.	.
.	.	.	.	.	.	16ccJk	.	.
4.AA	.	4.E	.	4.cX	.	4.b	.	i(9)
8r	.	8r	.	8r	.	8a'	.	i
=110	=110	=110	=110	=110	=110	=110	=110	=110
!LO:TX:b:i:t=cresc.	!	!LO:TX:a:i:t=cresc.	!	!LO:TX:a:i:t=cresc.	!	!LO:TX:a:i:t=cresc.	!	!
4DD	.	8r	.	8r	.	8gXL	.	iv(4)
.	.	8A	.	8d	.	16r	.	iv
.	.	.	.	.	.	16fXJk	.	.
4.DD	.	8r	.	8r	.	8eL	.	iv(9)
.	.	8FX	.	8A	.	16r	.	iv
.	.	.	.	.	.	16dJk	.	.
.	.	8r	.	8r	.	8cXL	.	V(6)
8EE	.	8E	.	8G#	.	16r	.	V7
.	.	.	.	.	.	16BJk	.	.
=111	=111	=111	=111	=111	=111	=111	=111	=111
8GGXL	.	4AA	.	4A	.	4A	.	i.V2
16r	.	.	.	.	.	.	.	.
16FFXJk	.	.	.	.	.	.	.	.
8EEL	.	4r	.	4r	.	4r	.	.
16r	.	.	.	.	.	.	.	.
16DDJk	.	.	.	.	.	.	.	.
8CCXL	.	4r	.	4r	.	4r	.	.
16r	.	.	.	.	.	.	.	.
16BBBJk	.	.	.	.	.	.	.	.
=112||	=112||	=112||	=112||	=112||	=112||	=112||	=112||	=112||
*k[b-]	*	*k[b-]	*	*k[b-]	*	*k[b-]	*	*
*F:	*	*F:	*	*F:	*	*F:	*	*
!	!LO:DY:a	!	!	!	!	!	!	!
8AAAL	f f	8AAL	.	2.r	.	2.r	.	iv
16r	.	16r	.	.	.	.	.	.
16EJk	.	16GJk	.	.	.	.	.	.
(4FX	.	(4A	.	.	.	.	.	.
8G)	.	8B-)	.	.	.	.	.	.
8r	.	8r	.	.	.	.	.	.
=113	=113	=113	=113	=113	=113	=113	=113	=113
!	!	!	!LO:DY:a	!	!	!	!	!
2.r	.	2.r	f	8gL	.	8eeL	f	iio6
.	.	.	.	16r	.	16r	.	.
.	.	.	.	16gJk	.	16eeJk	.	.
.	.	.	.	(4f	.	(4dd	.	i6
.	.	.	.	8e)	.	8cc#)	.	V64
.	.	.	.	8r	.	8r	.	.
=114	=114	=114	=114	=114	=114	=114	=114	=114
8c#L	.	8eL	.	2.r	.	2.r	.	iio
16r	.	16r	.	.	.	.	.	.
16c#Jk	.	16eJk	.	.	.	.	.	.
(4d	.	(4f	.	.	.	.	.	.
8e)	.	8g)	.	.	.	.	.	.
8r	.	8r	.	.	.	.	.	.
=115	=115	=115	=115	=115	=115	=115	=115	=115
2.r	.	2.r	.	8ggL	.	8bb-L	.	iv
.	.	.	.	16r	.	16r	.	.
.	.	.	.	16ggJk	.	16bb-Jk	.	.
.	.	.	.	(4ff	.	(4aa	.	i6
.	.	.	.	8ee)	.	8gg)	.	iio
.	.	.	.	8r	.	8r	.	.
=116	=116	=116	=116	=116	=116	=116	=116	=116
4r	.	8b-L	p	4r	.	4r	.	V6(9)
.	.	16r	.	.	.	.	.	.
.	.	16b-Jk	.	.	.	.	.	.
4.C#	p	4.a	.	4.E 4.e	p	4.ee	p	V65
8r	.	8g	.	8r	.	8r	.	.
=117	=117	=117	=117	=117	=117	=117	=117	=117
4r	.	8fL	.	4r	.	4r	.	i
.	.	16r	.	.	.	.	.	.
.	.	16fJk	.	.	.	.	.	.
4.D	.	4.e	.	4.F	.	4.a	.	i(9)
8r	.	8d	.	8r	.	8r	.	i
=118	=118	=118	=118	=118	=118	=118	=118	=118
4GG	.	8cL	.	8r	.	8r	.	iv
!	!	!LO:TX:b:i:t=cresc.	!	!LO:TX:a:i:t=cresc.	!	!LO:TX:a:i:t=cresc.	!	!
.	.	16r	.	8d	.	8b-	.	.
.	.	16B-Jk	.	.	.	.	.	.
!LO:TX:a:i:t=cresc.	!	!	!	!	!	!	!	!
4.GG	.	8AL	.	8r	.	8r	.	.
.	.	16r	.	8d	.	8b-	.	.
.	.	16GJk	.	.	.	.	.	.
.	.	8FL	.	8r	.	8r	.	.
8AA	.	16r	.	8c#	.	8a	.	V
.	.	16EJk	.	.	.	.	.	.
=119	=119	=119	=119	=119	=119	=119	=119	=119
8CL	.	4D	.	8dL	.	8dL	.	VI(2)
16r	.	.	.	16r	.	16r	.	.
16BB-Jk	.	.	.	16fJk	.	16ddJk	.	VI
8AAL	.	8r	.	8fL	.	8ddL	.	i64
16r	.	16r	.	16r	.	16r	.	.
16GGJk	.	16AA	.	16cc#Jk	.	16eeJk	.	V2
8FFL	.	8AAL	.	8ddL	.	8ffL	.	i6
16r	.	16r	.	16r	.	16r	.	.
16EEJk	.	16AAJk	.	16eeJk	.	16ggJk	.	V43
=120	=120	=120	=120	=120	=120	=120	=120	=120
!	!LO:DY:a	!	!	!	!	!	!	!
4DD	f f	4AA	.	8ffL	f	8aaL	f	i[i64
.	.	.	.	16r	.	16r	.	.
.	.	.	.	16ffJk	.	16aaJk	.	.
!	!LO:DY:a	!	!	!	!	!	!	!
[2DD [2AA	sf sf	2AA	.	(4.ee	sf	(4.gg	sf	i64(4)
.	.	.	.	8dd)	.	8ff)	.	i64
=121	=121	=121	=121	=121	=121	=121	=121	=121
4DD] 4AA]	.	(4BB	.	8aL	.	8ffL	.	#vi%2
.	.	.	.	16r	.	16r	.	.
.	.	.	.	16aJk	.	16ffJk	.	.
2DD 2AA	sf	4C#	sf	(4.g	sf	(4.ee	sf	V7
.	.	4D)	.	.	.	.	.	.
.	.	.	.	8f)	.	8dd)	.	i64]
=122	=122	=122	=122	=122	=122	=122	=122	=122
8GL	.	8B-XL	.	8e'L	.	8cc#'L	.	#viio43
16r	.	16r	.	16r	.	16r	.	.
16GJk	.	16B-Jk	.	16cc#'Jk	.	16ee'Jk	.	.
(4.F	.	(4.A	.	8cc#'L	.	8ee'L	.	i6(#72)
.	.	.	.	16r	.	16r	.	.
.	.	.	.	16dd'Jk	.	16ff'Jk	.	i6
.	.	.	.	8dd'L	.	8ff'L	.	.
8E)	.	8G)	.	16r	.	16r	.	iio
.	.	.	.	16ee'Jk	.	16gg'Jk	.	.
=123	=123	=123	=123	=123	=123	=123	=123	=123
8EL	.	8GL	.	8eeL	.	8ggL	.	.
16r	.	16r	.	16r	.	16r	.	.
16EJk	.	16GJk	.	16eJk	.	16gJk	.	.
(4.D	.	(4.F	.	8eL	.	8gL	.	i(94)
.	.	.	.	16r	.	16r	.	.
.	.	.	.	16fJk	.	16aJk	.	i
.	.	.	.	8fL	.	8aL	.	.
8C#)	.	8E)	.	16r	.	16r	.	#viio7
.	.	.	.	16gJk	.	16b-Jk	.	.
=124	=124	=124	=124	=124	=124	=124	=124	=124
8C#L	.	8EL	.	8ggL	.	8bb-L	.	.
16r	.	16r	.	16r	.	16r	.	.
16c#Jk	.	16eJk	.	16ggJk	.	16bb-Jk	.	.
8c#L	.	8eL	.	(4.ff	.	(4.aa	.	i
16r	.	16r	.	.	.	.	.	.
16dJk	.	16fJk	.	.	.	.	.	.
8dL	.	8fL	.	.	.	.	.	.
16r	.	16r	.	8ee)	.	8gg)	.	iio
16eJk	.	16gJk	.	.	.	.	.	.
=125	=125	=125	=125	=125	=125	=125	=125	=125
8EL	.	8gL	.	8eeL	.	8ggL	.	.
16r	.	16r	.	16r	.	16r	.	.
16EEJk	.	16GJk	.	16eeJk	.	16ggJk	.	.
8EEL	.	8GL	.	(4.dd	.	(4.ff	.	i6
16r	.	16r	.	.	.	.	.	.
16FFJk	.	16AJk	.	.	.	.	.	.
8FFL	.	8AL	.	.	.	.	.	.
16r	.	16r	.	8cc#)	.	8ee)	.	#viio43
16GGJk	.	16B-Jk	.	.	.	.	.	.
=126	=126	=126	=126	=126	=126	=126	=126	=126
8FFL	.	8AL	.	8ddL	.	8ddL	.	i6
16r	.	16r	.	16r	.	16r	.	.
16FJk	.	16AJk	.	16ddJk	.	16ffJk	.	.
(4.E	.	(4.G	.	8ddL	.	8ffL	.	iio(97)
.	.	.	.	16r	.	16r	.	.
.	.	.	.	16eeJk	.	16ggJk	.	iio
.	.	.	.	8eeL	.	8ggL	.	.
8D)	.	8F)	.	16r	.	16r	.	i
.	.	.	.	16ffJk	.	16aaJk	.	.
=127	=127	=127	=127	=127	=127	=127	=127	=127
8FFL	.	8AAL 8A	.	8aL	.	8aaL	.	i6
16r	.	16r	.	16r	.	16r	.	.
16FFJk	.	16AAJk 16A	.	16bJk	.	16bbJk	.	#vi%43
(4.EE	.	(4.AA 4.G	.	8bL	.	8bbL	.	V43(#9)
.	.	.	.	16r	.	16r	.	.
.	.	.	.	16cc#Jk	.	16ccc#Jk	.	V43
.	.	.	.	8cc#L	.	8ccc#L	.	.
8DD)	.	8AA) 8F	.	16r	.	16r	.	i
.	.	.	.	16ddJk	.	16dddJk	.	.
=128	=128	=128	=128	=128	=128	=128	=128	=128
!	!LO:DY:a	!	!LO:DY:a	!	!	!	!	!
4BBB-	ff ff	4BB- 4F	ff	8ddL	.	8dddL	ff	VI
.	.	.	.	16r	.	16r	.	.
.	.	.	.	16ffJk	.	16dddJk	.	.
2BBB-	.	2BB- 2B-	.	(4.ee-X	.	(4.cccX	.	.
.	.	.	.	8dd)	.	8bb-X)	.	.
=129	=129	=129	=129	=129	=129	=129	=129	=129
4EE-X	.	8B-L	.	8ggL	.	8bb-L	.	.bII
.	.	16r	.	16r	.	16r	.	.
.	.	16B-Jk	.	16gJk	.	16bb-Jk	.	.
2EE-	.	(4.d	.	(4.f	.	(4.gg#	.	.
.	.	8e-X)	.	8e-X)	.	8ggX)	.	.
=130	=130	=130	=130	=130	=130	=130	=130	=130
8CC#L	.	8EL 8e	.	8eL	.	8ggL	.	#viio
16r	.	16r	.	16r	.	16r	.	.
16AAAJk	.	16AJk	.	16cc#Jk	.	16ggJk	.	V7
8DDL	.	8AL	.	8ddL	.	8ffL	.	i
16r	.	16r	.	16r	.	16r	.	.
16DJk	.	16dJk	.	16ddJk	.	16ddJk	.	.
8BB-L	.	8B-L	.	8b-L	.	8b-L	.	.
16r	.	16r	.	16r	.	16r	.	.
16AAJk	.	16AJk	.	16aJk	.	16aJk	.	V
=131	=131	=131	=131	=131	=131	=131	=131	=131
8GG#L	.	8G#L	.	8g#L	.	8g#L	.	.
16r	.	16r	.	16r	.	16r	.	.
16AAJk	.	16AJk	.	16aJk	.	16aJk	.	.
8BBB-L	.	8BB-L	.	8B-L	.	8B-L	.	.
16r	.	16r	.	16r	.	16r	.	.
16AAAJk	.	16AAJk	.	16AJk	.	16AJk	.	V[V
8AAAL	.	8AAL	.	8AL	.	8AL	.	.
16r	.	16r	.	16r	.	16r	.	.
16AAAJk	.	16AAJk	.	16AJk	.	16AJk	.	.
=132	=132	=132	=132	=132	=132	=132	=132	=132
4r	.	4r	.	4r	.	8A	.	.
.	.	.	.	.	.	16r	.	.
.	.	.	.	.	.	16A	.	.
!	!	!	!LO:DY:a	!	!	!	!	!
2AAA	sf	(4.E	sf sf	(4.GX	.	(4.c#	sf	#viio6
.	.	8D)	.	8F)	.	8d)	.	i
=133	=133	=133	=133	=133	=133	=133	=133	=133
4r	.	4r	.	4r	.	8AL	.	.
.	.	.	.	.	.	16r	.	.
.	.	.	.	.	.	16AJk	.	.
!	!	!	!LO:DY:a	!	!	!	!	!
2AAA	sf	(4.GX	sf sf	(4.c#	.	(4.e	sf	#viio64
.	.	8F)	.	8d)	.	8f)	.	i6]
=134	=134	=134	=134	=134	=134	=134	=134	=134
!	!LO:DY:a	!	!LO:DY:a	!	!LO:DY:a	!	!	!
8GGL	ff ff	8DL	ff	8B-L	ff	8gL	.	iv
16r	.	16r	.	16r	.	16r	.	.
16GGJk	.	16GJk	.	16B-Jk	.	16aJk	.	.
4GG'	.	4G'	.	4B-'	.	4b-'	.	.
4r	.	4r	.	4r	.	4r	.	.
=135	=135	=135	=135	=135	=135	=135	=135	=135
8.EEL	.	8.c#L	.	8.gL	.	8.b-L	.	#viio65
16EEJk	.	16c#Jk	.	16gJk	.	16cc#Jk	.	.
4DD'	.	4f'	.	4a'	.	4dd'	.	i
4r	.	4r	.	4r	.	4r	.	.
=136	=136	=136	=136	=136	=136	=136	=136	=136
8DDL	.	4D	.	4F	.	8ddL	.	i
16r	.	.	.	.	.	16r	.	.
16CCJk	.	.	.	.	.	16eeJk	.	.
!	!	!	!LO:DY:a	!	!	!	!	!
8BBB-L	.	[2D	sf sf	[2F	.	8ffL	.	VI
16r	.	.	.	.	.	16r	.	.
16BBB-Jk	.	.	.	.	.	16ggJk	.	.
8BBB-L	sf	.	.	.	.	[4aa	sf	V(64)
16r	.	.	.	.	.	.	.	.
16AAAJk	.	.	.	.	.	.	.	.
=137	=137	=137	=137	=137	=137	=137	=137	=137
8AAAL	.	8DL]	.	8FL]	.	8aaL]	.	.
16r	.	16r	.	16r	.	16r	.	.
16AAJk	.	16DJk	.	16fJk	.	16ffJk	.	.
8AAL	.	8DL	.	8fL	.	8ddL	.	.
16r	.	16r	.	16r	.	16r	.	.
16AAJk	.	16DJk	.	16fJk	.	16b-Jk	.	.
8AAL	.	8EL	.	8gL	.	8aL	.	V7
16r	.	16r	.	16r	.	16r	.	.
16AAJk	.	16EJk	.	16aJk	.	16cc#Jk	.	.
=138	=138	=138	=138	=138	=138	=138	=138	=138
8DDL	.	4D 4F	.	8ddL	.	8ddL	.	i
16r	.	.	.	16r	.	16r	.	.
16CCJk	.	.	.	16eeJk	.	16dJk	.	.
8CCL	.	[2D [2F	.	8ffL	.	8dL	.	VI(2)
16r	.	.	.	16r	.	16r	.	.
16BBB-Jk	.	.	.	16ggJk	.	16eJk	.	.
8BBB-L	.	.	.	[4aa	.	8fL	.	VI7
16r	.	.	.	.	.	16r	.	.
16AAAJk	.	.	.	.	.	16gJk	.	.
=139	=139	=139	=139	=139	=139	=139	=139	=139
8AAAL	.	8DL] 8F]	.	8aaL]	.	8aL	.	V(64)
16r	.	16r	.	16r	.	16r	.	.
16AAJk	.	16DJk 16F	.	16ffJk	.	16fJk	.	.
8AAL	.	8DL 8F	.	8ddL	.	8dL	.	.
16r	.	16r	.	16r	.	16r	.	.
16AAAJk	.	16DJk 16F	.	16b-Jk	.	16B-Jk	.	.
8AAAL	.	8EL 8G	.	8aL	.	8AL	.	V7
16r	.	16r	.	16r	.	16r	.	.
16AAAJk	.	16AAJk	.	16cc#Jk	.	16c#Jk	.	.
=140	=140	=140	=140	=140	=140	=140	=140	=140
8DDL	.	8DL	.	8ddL	.	8dL	.	i
16r	.	16r	.	16r	.	16r	.	.
16AAAJk	.	16AAJk	.	16aJk	.	16AJk	.	.
4AAA	.	4AA	.	4a	.	4A	.	.
4r	.	4r	.	4r	.	4r	.	.
=141	=141	=141	=141	=141	=141	=141	=141	=141
8FFL	.	8FL	.	8ffL	.	8fL	.	i6
16r	.	16r	.	16r	.	16r	.	.
16DDJk	.	16DJk	.	16ddJk	.	16dJk	.	i
4DD	.	4D	.	4dd	.	4d	.	.
4r	.	4r	.	4r	.	4r	.	.
=142	=142	=142	=142	=142	=142	=142	=142	=142
8DL	.	8dL	.	8ddL	.	8ddL	.	.
16r	.	16r	.	16r	.	16r	.	.
16AAJk	.	16AJk	.	16aJk	.	16aJk	.	.
4FF'	.	4F'	.	4f'	.	4f'	.	.
4AA'	.	4A'	.	4a'	.	4a'	.	.
=143	=143	=143	=143	=143	=143	=143	=143	=143
4DD'	.	4D'	.	4d'	.	4d'	.	.
2G#	sf	2f	sf	2d	sf	2b	sf	#viio7/V
=144	=144	=144	=144	=144	=144	=144	=144	=144
4E'	.	4g'	.	4G'	.	4c#'	.	#viio6
2EE	.	2E	.	2g	.	2gg	.	.
=145	=145	=145	=145	=145	=145	=145	=145	=145
4C'	.	4c'	.	4e-X'	.	4f#'	.	#viio43/iv
2CC;	.	2C;	.	2ee-X;	.	2f#; 2eee-X	.	.
=146||	=146||	=146||	=146||	=146||	=146||	=146||	=146||	=146||
*k[f#c#g#d#a#]	*	*k[f#c#g#d#a#]	*	*k[f#c#g#d#a#]	*	*k[f#c#g#d#a#]	*	*
*B:	*	*B:	*	*B:	*	*B:	*	*
!LO:TX:a:i:t=espress.	!LO:DY:a	!LO:TX:a:i:t=espress.	!LO:DY:a	!LO:TX:a:i:t=espress.	!LO:DY:a	!	!	!
2.BBB	p p	2.BB	p	2.B	p	8B'L	.	I
.	.	.	.	.	.	8f#'J	.	.
.	.	.	.	.	.	(8f#L	.	.
.	.	.	.	.	.	8d#J	.	.
.	.	.	.	.	.	8BL	.	.
.	.	.	.	.	.	8f#J)	.	.
=147	=147	=147	=147	=147	=147	=147	=147	=147
(2.BB	.	2.D# 2.B	.	2.ff#	.	8r	.	.
.	.	.	.	.	.	8f#'	.	.
.	.	.	.	.	.	(8f#L	.	.
.	.	.	.	.	.	8d#J	.	.
.	.	.	.	.	.	8BL	.	.
.	.	.	.	.	.	8f#J)	.	.
=148	=148	=148	=148	=148	=148	=148	=148	=148
2.AA	.	2.D# 2.B	.	2.ff#	.	8r	.	V2/IV
.	.	.	.	.	.	8f#'	.	.
.	.	.	.	.	.	(8f#L	.	.
.	.	.	.	.	.	8d#J	.	.
.	.	.	.	.	.	8BL	.	.
.	.	.	.	.	.	8f#J)	.	.
=149	=149	=149	=149	=149	=149	=149	=149	=149
2.GG#)	.	2.E 2.B	.	2.gg#	.	8r	.	IV6
.	.	.	.	.	.	8g#'	.	.
.	.	.	.	.	.	(8g#L	.	.
.	.	.	.	.	.	8eJ	.	.
.	.	.	.	.	.	8BL	.	.
.	.	.	.	.	.	8g#J)	.	.
=150	=150	=150	=150	=150	=150	=150	=150	=150
(2.DD#	<	(2.BB#X	<	(2.f# 2.aa	<	8r	<	#viio65/ii
.	.	.	.	.	.	8a'	.	.
.	.	.	.	.	.	(8aL	.	.
.	.	.	.	.	.	8f#J	.	.
.	.	.	.	.	.	8B#XL	.	.
.	.	.	.	.	.	8aJ)	.	.
=151	=151	=151	=151	=151	=151	=151	=151	=151
2.EE	.	2.C#) 2.E	.	2.gg#	.	8r	.	ii6
.	.	.	.	.	.	8g#'	.	.
.	.	.	.	.	.	(8g#L	.	.
.	.	.	.	.	.	8c#J	.	.
.	.	.	.	.	.	8EL	.	.
.	.	.	.	.	.	8g#J)	.	.
=152	=152	=152	=152	=152	=152	=152	=152	=152
2.FF#)	.	(2.D#	.	2ff#	.	8r	.	V(64)
.	.	.	.	.	.	8f#'	.	.
.	.	.	.	.	.	(8f#L	.	.
.	.	.	.	.	.	8d#J	.	.
.	.	.	.	4bb	.	8BL	.	.
.	.	.	.	.	.	8f#J)	.	.
=153	=153	=153	=153	=153	=153	=153	=153	=153
(2.FF#	>]	4C#	.	4aa#	.	8r	.	V7
.	.	.	.	.	.	8f#'	.	.
.	.	4E)	.	4ccc#)	.	(8f#L	.	.
.	.	.	.	.	.	8eJ	.	.
.	.	4F#'	[ > ]]	4ee'	[ > ]]	8c#L	[ >	.
.	.	.	.	.	.	8f#J)	]]	.
=154	=154	=154	=154	=154	=154	=154	=154	=154
4BBB)	]	4F#	.	4dd#	.	4f#	.	I\\
4r	.	4r	.	4r	.	(8ff#L	.	.
.	.	.	.	.	.	8dd#J	.	.
4r	.	4r	.	4r	.	8gg#L	.	IV
.	.	.	.	.	.	8eeJ)	.	.
=155	=155	=155	=155	=155	=155	=155	=155	=155
2.r	.	2.r	.	2.r	.	(8ff#L	.	I
.	.	.	.	.	.	8dd#J	.	.
.	.	.	.	.	.	8gg#L	.	ii
.	.	.	.	.	.	8eeJ	.	.
.	.	.	.	.	.	8eeL	.	.
.	.	.	.	.	.	8cc#J)	.	.
=156	=156	=156	=156	=156	=156	=156	=156	=156
2.r	.	2.r	.	2.r	.	(8ff#L	.	I
.	.	.	.	.	.	8dd#J	.	.
.	.	.	.	.	.	8dd#L	.	.
.	.	.	.	.	.	8f#J	.	.
.	.	.	.	.	.	8eeL	.	ii6
.	.	.	.	.	.	8g#J)	.	.
=157	=157	=157	=157	=157	=157	=157	=157	=157
2.r	.	2.r	.	2.r	.	(8cc#L	.	.
.	.	.	.	.	.	8eJ	.	.
.	.	.	.	.	.	8a#L	.	viio6
.	.	.	.	.	.	8c#J	.	.
.	.	.	.	.	.	8bL	.	I
.	.	.	.	.	.	8d#J)	.	.
=158	=158	=158	=158	=158	=158	=158	=158	=158
!	!LO:DY:a	!	!LO:DY:a	!	!	!	!	!
2.BBB	p	2.BB	p	2.B	.	8B'L	p	.
.	.	.	.	.	.	8f#'J	.	.
.	.	.	.	.	.	(8f#L	.	.
.	.	.	.	.	.	8d#J	.	.
.	.	.	.	.	.	8BL	.	.
.	.	.	.	.	.	8f#J)	.	.
=159	=159	=159	=159	=159	=159	=159	=159	=159
(2.BB	.	2.f#	.	2.B 2.d#	.	8r	.	.
.	.	.	.	.	.	8f#'	.	.
.	.	.	.	.	.	(8f#L	.	.
.	.	.	.	.	.	8d#J	.	.
.	.	.	.	.	.	8BL	.	.
.	.	.	.	.	.	8f#J)	.	.
=160	=160	=160	=160	=160	=160	=160	=160	=160
2.AA	.	(2.f#	.	((2.B 2.d#	.	8r	.	V2/IV
.	.	.	.	.	.	8f#'	.	.
.	.	.	.	.	.	(8f#L	.	.
.	.	.	.	.	.	8d#J	.	.
.	.	.	.	.	.	8BL	.	.
.	.	.	.	.	.	8f#J)	.	.
=161	=161	=161	=161	=161	=161	=161	=161	=161
2.GG#)	.	2.g#	.	2.B)) 2.e	.	8r	.	IV6
.	.	.	.	.	.	8g#'	.	.
.	.	.	.	.	.	(8g#L	.	.
.	.	.	.	.	.	8eJ	.	.
.	.	.	.	.	.	8BL	.	.
.	.	.	.	.	.	8g#J)	.	.
=162	=162	=162	=162	=162	=162	=162	=162	=162
(2.D#	<	2.cX 2.a	<	(2.f#	<	8r	<	#viio65/IV
.	.	.	.	.	.	8a'	.	.
.	.	.	.	.	.	(8aL	.	.
.	.	.	.	.	.	8f#J	.	.
.	.	.	.	.	.	8cXL	.	.
.	.	.	.	.	.	8aJ)	.	.
=163	=163	=163	=163	=163	=163	=163	=163	=163
2.D	.	2.B) 2.g#	.	2.fX	.	8r	.	v.#viio43
.	.	.	.	.	.	8fX'	.	.
.	.	.	.	.	.	(8fL	.	.
.	.	.	.	.	.	8BJ	.	.
.	.	.	.	.	.	8G#L	.	.
.	.	.	.	.	.	8fJ)	.	.
=164	=164	=164	=164	=164	=164	=164	=164	=164
2.GG#	.	2.E 2.B	.	2.dd	.	8r	.	V65
.	.	.	.	.	.	8e'	.	.
.	.	.	.	.	.	(8eL	.	.
.	.	.	.	.	.	8dJ	.	.
.	.	.	.	.	.	8BL	.	.
.	.	.	.	.	.	8eJ)	.	.
=165	=165	=165	=165	=165	=165	=165	=165	=165
2.AA)	>]	2.E	>]	2.ccX)	>]	8r	.	i
.	.	.	.	.	.	8e'	.	.
.	.	.	.	.	.	(8eL	.	.
.	.	.	.	.	.	8cXJ	[	.
.	.	.	.	.	.	8AL	>	.
.	.	.	.	.	.	8eJ)	]]	.
=166||	=166||	=166||	=166||	=166||	=166||	=166||	=166||	=166||
*k[]	*	*k[]	*	*k[]	*	*k[]	*	*
*a:	*	*a:	*	*a:	*	*a:	*	*
4AA	]	4E	]	4cc	]	4e	.	.
4r	.	4r	.	4r	.	(8eeL	.	.
.	.	.	.	.	.	8ccJ	.	.
4r	.	4r	.	4r	.	8ffL	.	iio
.	.	.	.	.	.	8ddJ)	.	.
=167	=167	=167	=167	=167	=167	=167	=167	=167
2.r	.	2.r	.	2.r	.	(8ddL	.	.
.	.	.	.	.	.	8bJ	.	.
.	.	.	.	.	.	8eeL	.	V/IV
.	.	.	.	.	.	8cc#J	.	.
.	.	.	.	.	.	8cc#L	.	.
.	.	.	.	.	.	8aJ)	.	.
=168	=168	=168	=168	=168	=168	=168	=168	=168
2.GG	.	2.AA	.	2.A	.	8r	.	V2/IV
.	.	.	.	.	.	8cc#'	.	.
.	.	.	.	.	.	(8cc#L	.	.
.	.	.	.	.	.	8aJ	.	.
.	.	.	.	.	.	8eL	.	.
.	.	.	.	.	.	8cc#J)	.	.
=169	=169	=169	=169	=169	=169	=169	=169	=169
2.GG	.	2.E	.	2.e	.	8r	.	.
.	.	.	.	.	.	8cc#'	.	.
.	.	.	.	.	.	(8cc#L	.	.
.	.	.	.	.	.	8aJ	.	.
.	.	.	.	.	.	8eL	.	.
.	.	.	.	.	.	8cc#J)	.	.
=170	=170	=170	=170	=170	=170	=170	=170	=170
(2.GG	.	(2.E	.	(2.e	.	8r	.	.
.	.	.	.	.	.	8cc#'	.	.
.	.	.	.	.	.	(8cc#L	.	.
.	.	.	.	.	.	8aJ	.	.
.	.	.	.	.	.	8eL	.	.
.	.	.	.	.	.	8cc#J)	.	.
=171	=171	=171	=171	=171	=171	=171	=171	=171
2.FF#)	.	2.F#)	.	2.f#)	.	8r	.	IV6
.	.	.	.	.	.	8dd'	.	.
.	.	.	.	.	.	(8ddL	.	.
.	.	.	.	.	.	8aJ	.	.
.	.	.	.	.	.	8f#L	.	.
.	.	.	.	.	.	8ddJ)	.	.
=172	=172	=172	=172	=172	=172	=172	=172	=172
2.CC#	<	2.G	<	2.g	<	8r	<	#viio65/ii
.	.	.	.	.	.	8ee'	.	.
.	.	.	.	.	.	(8eeL	.	.
.	.	.	.	.	.	8a#XJ	.	.
.	.	.	.	.	.	8gL	.	.
.	.	.	.	.	.	8eeJ)	.	.
=173	=173	=173	=173	=173	=173	=173	=173	=173
2.DD	.	2.F#	.	2.f#	.	8r	.	ii6
.	.	.	.	.	.	8dd'	.	.
.	.	.	.	.	.	(8ddL	.	.
.	.	.	.	.	.	8bJ	.	.
.	.	.	.	.	.	8f#L	.	.
.	.	.	.	.	.	8ddJ)	.	.
=174	=174	=174	=174	=174	=174	=174	=174	=174
2.EE	.	2E	.	2e	.	8r	.	V(64)
.	.	.	.	.	.	8cc#'	.	.
.	.	.	.	.	.	(8cc#L	.	.
.	.	.	.	.	.	8aJ	.	.
.	.	4A	.	4a	.	8eL	.	.
.	.	.	.	.	.	8cc#J)	.	.
=175	=175	=175	=175	=175	=175	=175	=175	=175
2.EE	>]	4A-X	.	4a-X	.	8r	.	V7
.	.	.	.	.	.	8dd'	.	.
.	.	4B	.	4b	.	(8ddL	.	.
.	.	.	.	.	.	8bJ	.	.
.	.	4D'	[ > ]]	4d'	[ > ]]	8eL	[ >	.
.	.	.	.	.	.	8eeJ)	]]	.
=176	=176	=176	=176	=176	=176	=176	=176	=176
4AA	]	4C#	.	4c#	.	4ee	.	i.V[V
4r	.	4r	.	4r	.	(8eeL	.	.
.	.	.	.	.	.	8cc#J	.	.
4r	.	4r	.	4r	.	8ffL	.	i64
.	.	.	.	.	.	8ddJ)	.	.
=177	=177	=177	=177	=177	=177	=177	=177	=177
2.r	.	2.A	pp	2.a	pp	(8ffL	.	.
.	.	.	.	.	.	8ddJ	.	.
.	.	.	.	.	.	8ddL	.	.
.	.	.	.	.	.	8bJ	.	.
.	.	.	.	.	.	8eeL	.	V
.	.	.	.	.	.	8cc#J)	.	.
=178	=178	=178	=178	=178	=178	=178	=178	=178
4AA	.	2.r	.	2.r	.	4r	.	V]
4r	.	.	.	.	.	(8ggL	.	V7
.	.	.	.	.	.	8eeJ	.	.
4r	.	.	.	.	.	8aaL	.	i64
.	.	.	.	.	.	8ffJ)	.	.
=179	=179	=179	=179	=179	=179	=179	=179	=179
2.r	.	2.A	.	2.a	.	(8aaL	.	.
.	.	.	.	.	.	8ffJ	.	.
.	.	.	.	.	.	8ffL	.	.
.	.	.	.	.	.	8ddJ	.	.
.	.	.	.	.	.	8ggL	.	V7
.	.	.	.	.	.	8eeJ)	.	.
=180	=180	=180	=180	=180	=180	=180	=180	=180
!	!LO:DY:a	!	!	!	!	!	!	!
2.r	pp	8B-XL	.	8b-XL	pp	2.r	.	V7
.	.	16r	.	16r	.	.	.	.
.	.	16AJk	.	16aJk	.	.	.	.
.	.	8AL	.	8aL	.	.	.	.
.	.	16r	.	16r	.	.	.	.
.	.	16GJk	.	16gJk	.	.	.	.
.	.	4G	.	4g	.	.	.	.
=181	=181	=181	=181	=181	=181	=181	=181	=181
8GGL	pp	2.r	.	2.r	.	2.gg	pp	iio
16r	.	.	.	.	.	.	.	.
16FFJk	.	.	.	.	.	.	.	.
8FFL	.	.	.	.	.	.	.	.
16r	.	.	.	.	.	.	.	.
16EEJk	.	.	.	.	.	.	.	.
4EE	.	.	.	.	.	.	.	.
=182	=182	=182	=182	=182	=182	=182	=182	=182
2.r	.	8EL	.	8eL	.	2.gg#	.	V6
.	.	16r	.	16r	.	.	.	.
.	.	16DJk	.	16dJk	.	.	.	.
.	.	8DL	.	8dL	.	.	.	.
.	.	16r	.	16r	.	.	.	.
.	.	16C#Jk	.	16c#Jk	.	.	.	.
.	.	4C#	.	4c#	.	.	.	.
=183	=183	=183	=183	=183	=183	=183	=183	=183
!LO:TX:b:i:t=cresc.	!	!	!	!	!	!LO:TX:a:i:t=cresc.	!	!
8CC#L	.	4r	.	4r	.	2.aa	.	V
16r	.	.	.	.	.	.	.	.
16BBBJk	.	.	.	.	.	.	.	.
!	!	!LO:TX:b:i:t=cresc.	!	!LO:TX:b:i:t=cresc.	!	!	!	!
8BBBL	.	8AL	.	8c#L	.	.	.	.
16r	.	16r	.	16r	.	.	.	.
16AAAJk	.	16BJk	.	16dJk	.	.	.	.
8AAAL	.	8BL	.	8dL	.	.	.	.
16r	.	16r	.	16r	.	.	.	.
16AAJk	.	16c#Jk	.	16eJk	.	.	.	.
=184||	=184||	=184||	=184||	=184||	=184||	=184||	=184||	=184||
*k[b-]	*	*k[b-]	*	*k[b-]	*	*k[b-]	*	*
*d:	*	*d:	*	*d:	*	*d:	*	*
!	!	!	!	!	!LO:DY:a	!LO:TX:a:B:t=Più Allegro	!	!
4DD 4AA	f	8dL	f	8fL	f f	8aaL	.	i[i64
.	.	16r	.	16r	.	16r	.	.
.	.	16DJk	.	16ffJk	.	16aaJk	.	.
2DD 2AA	sf	(4.E	sf	(4.ee	sf	(4.gg	sf	V7
.	.	8FX)	.	8dd)	.	8ffX)	.	i64
=185	=185	=185	=185	=185	=185	=185	=185	=185
4DD 4AA	.	(4BB	.	8aL	.	8ffL	.	#vi%2
.	.	.	.	16r	.	16r	.	.
.	.	.	.	16aJk	.	16ffJk	.	.
2DD 2AA	sf	4C#	sf	(4.gX	sf	(4.ee	sf	V7
.	.	4D)	.	.	.	.	.	.
.	.	.	.	8f)	.	8dd)	.	i64]
=186	=186	=186	=186	=186	=186	=186	=186	=186
8GL	.	8B-XL	.	8e'L	.	8cc#'L	.	#viio43
16r	.	16r	.	16r	.	16r	.	.
16GJk	.	16B-Jk	.	16cc#'Jk	.	16ee'Jk	.	.
(4.F	.	(4.A	.	8cc#'L	.	8ee'L	.	i6(72)
.	.	.	.	16r	.	16r	.	.
.	.	.	.	16dd'Jk	.	16ff'Jk	.	i6
.	.	.	.	8dd'L	.	8ff'L	.	.
8E)	.	8G)	.	16r	.	16r	.	iio
.	.	.	.	16ee'Jk	.	16gg'Jk	.	.
=187	=187	=187	=187	=187	=187	=187	=187	=187
8EL	.	8GL	.	8eeL	.	8ggL	.	.
16r	.	16r	.	16r	.	16r	.	.
16EJk	.	16GJk	.	16eJk	.	16gJk	.	.
(4.D	.	(4.F	.	8eL	.	8gL	.	i(94)
.	.	.	.	16r	.	16r	.	.
.	.	.	.	16fJk	.	16aJk	.	i
.	.	.	.	8fL	.	8aL	.	.
8C#)	.	8E)	.	16r	.	16r	.	#viio7
.	.	.	.	16gJk	.	16b-Jk	.	.
=188	=188	=188	=188	=188	=188	=188	=188	=188
8C#L	.	8EL	.	8ggL	.	8bb-L	.	.
16r	.	16r	.	16r	.	16r	.	.
16c#Jk	.	16eJk	.	16ggJk	.	16bb-Jk	.	.
8c#L	.	8eL	.	(4.ff	.	(4.aa	.	i
16r	.	16r	.	.	.	.	.	.
16dJk	.	16fJk	.	.	.	.	.	.
8dL	.	8fL	.	.	.	.	.	.
16r	.	16r	.	8ee)	.	8gg)	.	iio
16eJk	.	16gJk	.	.	.	.	.	.
=189	=189	=189	=189	=189	=189	=189	=189	=189
8EL	.	8gL	.	8eeL	.	8ggL	.	.
16r	.	16r	.	16r	.	16r	.	.
16EEJk	.	16GJk	.	16eeJk	.	16ggJk	.	.
8EEL	.	8GL	.	(4.dd	.	(4.ff	.	i6
16r	.	16r	.	.	.	.	.	.
16FFJk	.	16AJk	.	.	.	.	.	.
8FFL	.	8AL	.	.	.	.	.	.
16r	.	16r	.	8cc#)	.	8ee)	.	#viio43
16GGJk	.	16B-Jk	.	.	.	.	.	.
=190	=190	=190	=190	=190	=190	=190	=190	=190
8FFL	.	8AL	.	8ddL	.	8ddL	.	i6
16r	.	16r	.	16r	.	16r	.	.
16FJk	.	16AJk	.	16ddJk	.	16ffJk	.	.
(4.E	.	(4.G	.	8ddL	.	8ffL	.	iio(97)
.	.	.	.	16r	.	16r	.	.
.	.	.	.	16eeJk	.	16ggJk	.	iio
.	.	.	.	8eeL	.	8ggL	.	.
8D)	.	8F)	.	16r	.	16r	.	i
.	.	.	.	16ffJk	.	16aaJk	.	.
=191	=191	=191	=191	=191	=191	=191	=191	=191
8FFL	.	8AAL 8A	.	8aL	.	8aaL	.	i6
16r	.	16r	.	16r	.	16r	.	.
16FFJk	.	16AAJk 16A	.	16bJk	.	16bbJk	.	#vi%43
(4.EE	.	(4.AA 4.G	.	8bL	.	8bbL	.	V43(#9)
.	.	.	.	16r	.	16r	.	.
.	.	.	.	16cc#Jk	.	16ccc#Jk	.	V43
.	.	.	.	8cc#L	.	8ccc#L	.	.
8DD)	.	8AA) 8F	.	16r	.	16r	.	i
.	.	.	.	16ddJk	.	16dddJk	.	.
=192	=192	=192	=192	=192	=192	=192	=192	=192
!	!LO:DY:a	!	!LO:DY:a	!	!	!	!	!
4BBB-	ff ff	4BB- 4F	ff	8ddL	.	8dddL	ff	VI
.	.	.	.	16r	.	16r	.	.
.	.	.	.	16ffJk	.	16dddJk	.	.
2BBB-	.	2BB- 2B-	.	(4.ee-X	.	(4.cccX	.	.
.	.	.	.	8dd)	.	8bb-X)	.	.
=193	=193	=193	=193	=193	=193	=193	=193	=193
4EE-X	.	8B-L	.	8ggL	.	8bb-L	.	.bII
.	.	16r	.	16r	.	16r	.	.
.	.	16B-Jk	.	16gJk	.	16bb-Jk	.	.
2EE-	.	(4.d	.	(4.f	.	(4.aa-X	.	.bII(64)
.	.	8e-X)	.	8e-X)	.	8gg)	.	.bII
=194	=194	=194	=194	=194	=194	=194	=194	=194
8CC#L	.	8EL 8e	.	8eL	.	8ggL	.	#viio
16r	.	16r	.	16r	.	16r	.	.
16AAAJk	.	16AJk	.	16cc#Jk	.	16ggJk	.	V7
8DDL	.	8AL	.	8ddL	.	8ffL	.	i
16r	.	16r	.	16r	.	16r	.	.
16DJk	.	16dJk	.	16ddJk	.	16ddJk	.	.
8BB-L	.	8B-L	.	8b-L	.	8b-L	.	.
16r	.	16r	.	16r	.	16r	.	.
16AAJk	.	16AJk	.	16aJk	.	16aJk	.	V
=195	=195	=195	=195	=195	=195	=195	=195	=195
8GG#L	.	8G#L	.	8g#L	.	8g#L	.	.
16r	.	16r	.	16r	.	16r	.	.
16AAJk	.	16AJk	.	16aJk	.	16aJk	.	.
8BBB-L	.	8BB-L	.	8B-L	.	8B-L	.	.
16r	.	16r	.	16r	.	16r	.	.
16AAAJk	.	16AAJk	.	16AJk	.	16AJk	.	.
8AAAL	.	8AAL	.	8AL	.	8AL	.	.
16r	.	16r	.	16r	.	16r	.	.
16AAAJk	.	16AAJk	.	16AJk	.	16AJk	.	.
=196	=196	=196	=196	=196	=196	=196	=196	=196
4r	.	4r	.	4r	.	8AL	.	.
.	.	.	.	.	.	16r	.	.
.	.	.	.	.	.	16AJk	.	.
!	!	!	!LO:DY:a	!	!	!	!	!
2AAA	sf	(4.E	sf sf	(4.GX	.	(4.c#	sf	V[#viio6
.	.	8D)	.	8F)	.	8d)	.	i
=197	=197	=197	=197	=197	=197	=197	=197	=197
4r	.	4r	.	4r	.	8AL	.	.
.	.	.	.	.	.	16r	.	.
.	.	.	.	.	.	16AJk	.	.
2AAA	sf	(4.GX	sf	(4.c#	sf	(4.e	sf	#viio64
.	.	8F)	.	8d)	.	8f)	.	i6]
=198	=198	=198	=198	=198	=198	=198	=198	=198
!	!LO:DY:a	!	!LO:DY:a	!	!LO:DY:a	!	!	!
8GGL	ff ff	8DL	ff	8B-L	ff	8gL	.	iv
16r	.	16r	.	16r	.	16r	.	.
16GGJk	.	16GJk	.	16B-Jk	.	16aJk	.	.
4GG'	.	4G'	.	4B-'	.	4b-'	.	.
4r	.	4r	.	4r	.	4r	.	.
=199	=199	=199	=199	=199	=199	=199	=199	=199
8EEL	.	8c#L	.	8gL	.	8b-L	.	#viio65
16r	.	16r	.	16r	.	16r	.	.
16EEJk	.	16c#Jk	.	16gJk	.	16cc#Jk	.	.
4DD'	.	4f'	.	4a'	.	4dd'	.	i
4r	.	4r	.	4r	.	4r	.	.
=200	=200	=200	=200	=200	=200	=200	=200	=200
8DDL	.	4D	.	4F	.	8ddL	.	i
16r	.	.	.	.	.	16r	.	.
16CCJk	.	.	.	.	.	16eeJk	.	.
!	!LO:DY:a	!	!LO:DY:a	!	!	!	!	!
8CCL	sf	[2D	sf	[2F	.	8ffL	.	i2
16r	.	.	.	.	.	16r	.	.
16BBB-Jk	.	.	.	.	.	16ggJk	.	.
8BBB-L	sf	.	.	.	.	[4aa	sf	V(964)
16r	.	.	.	.	.	.	.	.
16AAAJk	.	.	.	.	.	.	.	.
=201	=201	=201	=201	=201	=201	=201	=201	=201
8AAAL	.	8DL]	.	8FL]	.	8aaL]	.	V(64)
16r	.	16r	.	16r	.	16r	.	.
16AAJk	.	16DJk	.	16fJk	.	16ffJk	.	.
8AAL	.	8DL	.	8fL	.	8ddL	.	.
16r	.	16r	.	16r	.	16r	.	.
16AAJk	.	16DJk	.	16fJk	.	16b-Jk	.	.
8AAL	.	8EL	.	8gL	.	8aL	.	V7
16r	.	16r	.	16r	.	16r	.	.
16AAJk	.	16EJk	.	16aJk	.	16cc#Jk	.	.
=202	=202	=202	=202	=202	=202	=202	=202	=202
8DDL	.	4D 4F	.	8ddL	.	8ddL	.	i
16r	.	.	.	16r	.	16r	.	.
16CCJk	.	.	.	16eeJk	.	16dJk	.	.
!	!LO:DY:a	!	!	!	!	!	!	!
8CCL	fz	[2D [2F	.	8ffL	.	8dL	.	i2
16r	.	.	.	16r	.	16r	.	.
16BBB-Jk	.	.	.	16ggJk	.	16eJk	.	.
8BBB-L	.	.	.	[4aa	sf	8fL	.	VI7
16r	.	.	.	.	.	16r	.	.
16AAAJk	.	.	.	.	.	16gJk	.	.
=203	=203	=203	=203	=203	=203	=203	=203	=203
8AAAL	.	8DL] 8F]	.	8aaL]	.	8aL	.	V(64)
16r	.	16r	.	16r	.	16r	.	.
16AAJk	.	16DJk 16F	.	16ffJk	.	16fJk	.	.
8AAL	.	8DL 8F	.	8ddL	.	8dL	.	.
16r	.	16r	.	16r	.	16r	.	.
16AAAJk	.	16DJk 16F	.	16b-Jk	.	16B-Jk	.	.
8AAAL	.	8EL 8G	.	8aL	.	8AL	.	V7
16r	.	16r	.	16r	.	16r	.	.
16AAAJk	.	16AAJk	.	16cc#Jk	.	16c#Jk	.	.
=204	=204	=204	=204	=204	=204	=204	=204	=204
8DDL	.	8DL	.	8ddL	.	8dL	.	i
16r	.	16r	.	16r	.	16r	.	.
16AAAJk	.	16AAJk	.	16aJk	.	16AJk	.	.
4AAA	.	4AA	.	4a	.	4A	.	.
4r	.	4r	.	4r	.	4r	.	.
=205	=205	=205	=205	=205	=205	=205	=205	=205
8FFL	.	8FL	.	8ffL	.	8fL	.	.
16r	.	16r	.	16r	.	16r	.	.
16DDJk	.	16DJk	.	16ddJk	.	16dJk	.	.
4DD	.	4D	.	4dd	.	4d	.	.
4r	.	4r	.	4r	.	4r	.	.
=206	=206	=206	=206	=206	=206	=206	=206	=206
8DL	.	8dL	.	8ddL	.	8ddL	.	.
16r	.	16r	.	16r	.	16r	.	.
16AAJk	.	16AJk	.	16aJk	.	16aJk	.	.
4FF'	.	4F'	.	4f'	.	4f'	.	.
4AA'	.	4A'	.	4a'	.	4a'	.	V
=207	=207	=207	=207	=207	=207	=207	=207	=207
4DD'	.	4D'	.	4d'	.	4d'	.	i\\
4r	.	4r	.	4r	.	4r	.	.
4r	.	4r	.	4r	.	4r	.	.
==	==	==	==	==	==	==	==	==
*-	*-	*-	*-	*-	*-	*-	*-	*-
!!!system-decoration: [(s1,s2,s3,s4)]
